packages/usa-icon/src/img/material-icons/integration_instructions.svg

<svg xmlns="http://www.w3.org/2000/svg" height="24" viewBox="0 0 24 24" width="24"><path fill="none" d="M0 0h24v24H0z"/><circle cx="12" cy="3.5" fill="none" r=".75"/><circle cx="12" cy="3.5" fill="none" r=".75"/><circle cx="12" cy="3.5" fill="none" r=".75"/><path d="M19 3h-4.18C14.4 1.84 13.3 1 12 1s-2.4.84-2.82 2H5c-.14 0-.27.01-.4.04a2.008 2.008 0 0 0-1.44 1.19c-.1.23-.16.49-.16.77v14c0 .27.06.54.16.78s.25.45.43.64c.27.27.62.47 1.01.55.13.02.26.03.4.03h14c1.1 0 2-.9 2-2V5c0-1.1-.9-2-2-2zm-8 11.17-1.41 1.42L6 12l3.59-3.59L11 9.83 8.83 12 11 14.17zm1-9.92c-.41 0-.75-.34-.75-.75s.34-.75.75-.75.75.34.75.75-.34.75-.75.75zm2.41 11.34L13 14.17 15.17 12 13 9.83l1.41-1.42L18 12l-3.59 3.59z"/></svg>

<svg xmlns="http://www.w3.org/2000/svg" enable-background="new 0 0 24 24" height="24" viewBox="0 0 24 24" width="24"><g><rect fill="none" height="24" width="24"/><circle cx="12" cy="3.5" fill="none" r=".75"/><circle cx="12" cy="3.5" fill="none" r=".75"/><circle cx="12" cy="3.5" fill="none" r=".75"/><path d="M19,3h-4.18C14.4,1.84,13.3,1,12,1S9.6,1.84,9.18,3H5C4.86,3,4.73,3.01,4.6,3.04C4.21,3.12,3.86,3.32,3.59,3.59 c-0.18,0.18-0.33,0.4-0.43,0.64C3.06,4.46,3,4.72,3,5v14c0,0.27,0.06,0.54,0.16,0.78c0.1,0.24,0.25,0.45,0.43,0.64 c0.27,0.27,0.62,0.47,1.01,0.55C4.73,20.99,4.86,21,5,21h14c1.1,0,2-0.9,2-2V5C21,3.9,20.1,3,19,3z M11,14.17l-1.41,1.42L6,12 l3.59-3.59L11,9.83L8.83,12L11,14.17z M12,4.25c-0.41,0-0.75-0.34-0.75-0.75S11.59,2.75,12,2.75s0.75,0.34,0.75,0.75 S12.41,4.25,12,4.25z M14.41,15.59L13,14.17L15.17,12L13,9.83l1.41-1.42L18,12L14.41,15.59z"/></g></svg>
